!!!SOCIAL_FUNCTION:	moccasin game songs
!!!PDT:	1909
!!!OTL: No_173.krn
!!!REG: Great_Lakes
!!!LANG: Non-Tone
!!!LING_GROUP: Algonquin
**kern	**kern
*staff2	*staff1
=1-	=1-
*clefF4	*clefF4
*k[b-]	*k[b-]
*M3/4	*M3/4
16GG/LK	4.d\
8GG^/J	.
16r	.
16GG/LK	.
8GG^/J	.
.	8f\
16r	.
16GG/LK	4d\
8GG^/J	.
16r	.
=2||	=2||
*M2/4	*M2/4
2r	8d\L
.	8A\J
.	8d\L
.	8A\J
=3	=3
2r	4F\
.	4D\
=4	=4
2r	8D\L
.	8D\J
.	4D\
=5	=5
2r	4.F\
.	8d\
=6	=6
2r	4A\
.	4F\
=7	=7
2r	4D\
.	8D\L
.	8D\J
=8	=8
2r	2D\
=9	=9
2r	4B-\
.	4F\
=10	=10
2r	8E\L
.	8D\J
.	8D/L
.	8BB-/J
=11||	=11||
*M3/4	*M3/4
2.r	4.D\
.	8B-\
.	4G\
=12	=12
2.r	2.D\
==	==
*-	*-
